Newaita-dark/apps/48/latexila.svg

<svg height="48pt" viewBox="0 0 48 48" width="48pt" xmlns="http://www.w3.org/2000/svg" xmlns:xlink="http://www.w3.org/1999/xlink"><linearGradient id="a" gradientUnits="userSpaceOnUse" x1="23.814782" x2="23.814782" y1="42.0509035" y2="44.03546931253"><stop offset="0" stop-opacity=".27451"/><stop offset="1" stop-opacity="0"/></linearGradient><linearGradient id="b"><stop offset="0" stop-opacity=".313725"/><stop offset=".222222" stop-opacity=".27451"/><stop offset="1" stop-opacity="0"/></linearGradient><radialGradient id="c" cx="450.90894" cy="189.57936" gradientTransform="matrix(.00000026 -.117199 -.210958 -.00000015 73.234568 95.393002)" gradientUnits="userSpaceOnUse" r="21.166656" xlink:href="#b"/><radialGradient id="d" cx="450.90894" cy="189.57936" gradientTransform="matrix(-.00000026 .117199 .210958 .00000015 -26.597295 -11.291218)" gradientUnits="userSpaceOnUse" r="21.166656" xlink:href="#b"/><radialGradient id="e" cx="450.90894" cy="189.57936" gradientTransform="matrix(-.00000026 -.117199 .210958 -.00000015 -26.597296 95.393002)" gradientUnits="userSpaceOnUse" r="21.166656" xlink:href="#b"/><radialGradient id="f" cx="450.90894" cy="189.57936" gradientTransform="matrix(.00000026 .117199 -.210958 .00000015 73.234565 -11.291219)" gradientUnits="userSpaceOnUse" r="21.166656" xlink:href="#b"/><linearGradient id="g" gradientUnits="userSpaceOnUse" x1="23.318674" x2="23.318674" y1="42.05096669922" y2="4.34417271465"><stop offset="0" stop-color="#ffca28"/><stop offset="1" stop-color="#ffd54f"/></linearGradient><linearGradient id="h"><stop offset="0" stop-color="#26a69a"/><stop offset="1" stop-color="#4db6ac"/></linearGradient><linearGradient id="i" gradientUnits="userSpaceOnUse" x1="23.318674" x2="23.318674" xlink:href="#h" y1="42.05096669922" y2="4.34417271465"/><linearGradient id="j" gradientTransform="matrix(.0175412 .0175412 -.0175412 .0175412 31.256365 2.92199)" gradientUnits="userSpaceOnUse" x1="1157.7817" x2="614.72894" xlink:href="#h" y1="1072.8989" y2="504.99619"/><path d="m12.898438 42.050781h20.839843v1.984375h-20.839843zm0 0" fill="url(#a)"/><path d="m33.738281 42.050781h3.96875v-1.984375h-3.96875zm0 0" fill="url(#c)"/><path d="m12.898438 42.050781h-3.96875v1.984375h3.96875zm0 0" fill="url(#d)"/><path d="m12.898438 42.050781h-3.96875v-1.984375h3.96875zm0 0" fill="url(#e)"/><path d="m33.738281 42.050781h3.96875v1.984375h-3.96875zm0 0" fill="url(#f)"/><path d="m10.914062 4.34375c-1.097656 0-1.984374.886719-1.984374 1.984375v33.738281c0 1.097656.886718 1.984375 1.984374 1.984375h24.808594c1.097656 0 1.984375-.886719 1.984375-1.984375v-26.792968l-8.929687-8.929688zm19.847657 0 6.945312 6.945312v-4.960937c0-1.097656-.886719-1.984375-1.984375-1.984375zm0 0" fill="url(#g)"/><path d="m30.761719 4.34375 6.945312 6.945312v-4.960937c0-1.097656-.886719-1.984375-1.984375-1.984375zm0 0" fill="url(#i)"/><path d="m10.914062 4.34375c-1.097656 0-1.984374.886719-1.984374 1.984375v.496094c0-1.097657.886718-1.984375 1.984374-1.984375h17.863282l8.929687 8.929687v-.496093l-8.929687-8.929688zm19.847657 0 .496093.496094h4.464844c1.097656 0 1.984375.886718 1.984375 1.984375v-.496094c0-1.097656-.886719-1.984375-1.984375-1.984375zm0 0" fill="#fff" fill-opacity=".392157"/><path d="m30.761719 4.34375 6.945312 6.945312v-.734374l-6.210937-6.210938zm-21.832031 34.984375v.738281c0 1.097656.886718 1.984375 1.984374 1.984375h24.808594c1.097656 0 1.984375-.886719 1.984375-1.984375v-.738281c0 1.101563-.886719 1.988281-1.984375 1.988281h-24.808594c-1.097656 0-1.984374-.886718-1.984374-1.988281zm0 0" fill-opacity=".235294"/><path d="m10.914062 4.203125c-1.175781 0-2.125.949219-2.125 2.125v33.738281c0 1.175782.949219 2.125 2.125 2.125h24.808594c1.175782 0 2.125-.949218 2.125-2.125v-26.792968c0-.035157-.015625-.070313-.042968-.097657l-8.929688-8.929687c-.027344-.027344-.0625-.042969-.097656-.042969zm19.847657 0c-.058594 0-.109375.035156-.132813.085937-.019531.054688-.007812.113282.03125.15625l6.945313 6.945313c.042969.039063.101562.050781.15625.03125.050781-.023437.085937-.074219.085937-.132813v-4.960937c0-1.175781-.949218-2.125-2.125-2.125zm-19.847657.28125h17.804688l8.847656 8.847656v26.734375c0 1.023438-.820312 1.84375-1.84375 1.84375h-24.808594c-1.023437 0-1.84375-.820312-1.84375-1.84375v-33.738281c0-1.023437.820313-1.84375 1.84375-1.84375zm20.1875 0h4.621094c1.023438 0 1.84375.820313 1.84375 1.84375v4.621094zm0 0" fill="#212121"/><path d="m37.304688 25.757812c-.507813 0-1.011719.195313-1.402344.582032l-7.015625 7.019531-1.054688 1.050781 4.914063 4.910156 8.066406-8.066406c.777344-.777344.777344-2.03125 0-2.808594l-2.101562-2.105468c-.390626-.386719-.898438-.582032-1.40625-.582032zm-10.523438 9.707032c-.113281.113281-.203125.253906-.25.425781l-1.40625 4.914063c-.210938.746093.480469 1.4375 1.226562 1.226562l4.910157-1.40625c.171875-.046875.316406-.136719.429687-.25zm0 0" fill="url(#j)"/><path d="m37.304688 25.757812c-.507813 0-1.011719.195313-1.402344.582032l-7.015625 7.019531-1.054688 1.050781.414063.414063 7.65625-7.65625c.777344-.777344 2.03125-.777344 2.808594 0l2.101562 2.105469c.285156.28125.464844.625.539062.988281.136719-.632813-.042968-1.320313-.539062-1.816407l-2.101562-2.105468c-.390626-.386719-.898438-.582032-1.40625-.582032zm0 0" fill="#d7d7d7" fill-opacity=".588235"/><path d="m37.304688 25.757812c-.507813 0-1.011719.195313-1.402344.582032l-7.015625 7.019531-1.054688 1.050781.273438.269532 7.796875-7.796876c.023437-.027343.050781-.050781.074218-.070312.027344-.023438.050782-.046875.078126-.066406.039062-.03125.078124-.0625.117187-.09375.042969-.027344.085937-.054688.125-.078125.058594-.035157.117187-.0625.175781-.089844.203125-.097656.421875-.15625.644532-.175781.0625-.007813.125-.011719.1875-.011719.066406 0 .128906.003906.191406.011719.222656.019531.4375.078125.644531.175781.058594.027344.117187.054687.171875.089844.042969.023437.085938.050781.125.078125.042969.03125.082031.0625.121094.09375.027344.019531.050781.042968.078125.066406.023437.019531.046875.042969.074219.070312l2.101562 2.105469c.019531.015625.039062.035157.054688.054688.003906.003906.011718.011719.015624.015625.011719.015625.023438.027344.035157.039062.003906.007813.011719.015625.015625.019532.015625.015624.027344.03125.039062.046874.003906.003907.007813.007813.007813.011719.015625.019531.03125.039063.046875.0625.003906.003907.003906.007813.007812.011719.011719.015625.023438.03125.035156.050781.003907.003907.007813.007813.011719.015625.007813.015625.019531.035156.03125.050782.003907.003906.003907.007812.007813.011718.011718.023438.023437.042969.035156.066406.011719.023438.023438.042969.035156.066407.003906.003906.003906.011719.007813.015625.007812.015625.015625.035156.023437.054687.003906.003907.007813.007813.007813.015625.011719.019532.019531.042969.027343.066406.011719.023438.019532.046876.027344.074219.011719.023438.019532.046875.023438.070313.003906.003906.003906.003906.003906.007812.007812.023438.015625.046875.019531.070313.015625.050781.023438.101562.035157.152343v.003907c.003906.023437.007812.050781.011718.074219v.003906c.082032-.59375-.105468-1.214844-.566406-1.675782l-2.101562-2.105468c-.390626-.386719-.898438-.582032-1.40625-.582032zm-10.523438 9.707032c-.113281.113281-.203125.253906-.25.425781l-1.40625 4.914063c-.054688.1875-.046875.375 0 .542968v-.003906l1.40625-4.910156c.046875-.171875.136719-.316406.25-.429688l4.585938 4.585938c.128906-.050782.234374-.125.324218-.214844zm0 0" fill="#d7d7d7" fill-opacity=".588235" fill-rule="evenodd"/><path d="m41.382812 29.601562c-.054687.421876-.242187.832032-.570312 1.15625l-8.066406 8.066407-4.664063-4.660157-.25.246094 4.914063 4.910156 8.066406-8.066406c.453125-.453125.644531-1.066406.570312-1.652344zm-9.984374 10.480469c-.042969.019531-.085938.035157-.136719.046875l-4.910157 1.40625c-.566406.160156-1.097656-.195312-1.234374-.703125-.1875.734375.496093 1.410157 1.234374 1.199219l4.910157-1.40625c.171875-.046875.316406-.136719.429687-.25zm0 0" fill-opacity=".235294"/><g fill="none" stroke="#212121" stroke-linecap="round" stroke-linejoin="round" stroke-width="3" transform="matrix(.093759 0 0 .093759 0 20.158175)"><path d="m412.877239 65.931506c-8.290875-8.290875-21.664598-8.290875-29.955473 0l-74.826188 74.86785-11.248925 11.207263 52.411661 52.369999 86.033451-86.033451c8.290875-8.290875 8.290875-21.664597 0-29.955472zm0 0"/><path d="m285.639389 163.255545c-1.208217 1.208218-2.166459 2.708075-2.666412 4.541233l-14.998567 52.411662c-2.249785 7.957573 5.12451 15.331869 13.082084 13.082084l52.369999-14.998568c1.833158-.499952 3.374677-1.458194 4.582895-2.666412zm0 0"/></g></svg>

<?xml version="1.0" encoding="UTF-8"?>
<svg xmlns="http://www.w3.org/2000/svg" xmlns:xlink="http://www.w3.org/1999/xlink" width="48pt" height="48pt" viewBox="0 0 48 48" version="1.1">
<defs>
<linearGradient id="linear0" gradientUnits="userSpaceOnUse" x1="254" y1="233.5" x2="254" y2="254.66667" gradientTransform="matrix(0.093759,0,0,0.093759,-0.00000375036,20.158177)">
<stop offset="0" style="stop-color:rgb(0%,0%,0%);stop-opacity:0.27451;"/>
<stop offset="1" style="stop-color:rgb(0%,0%,0%);stop-opacity:0;"/>
</linearGradient>
<radialGradient id="radial0" gradientUnits="userSpaceOnUse" cx="450.90894" cy="189.57936" fx="450.90894" fy="189.57936" r="21.166656" gradientTransform="matrix(0.000000261256,-0.117199,-0.210958,-0.000000152308,73.234568,95.393002)">
<stop offset="0" style="stop-color:rgb(0%,0%,0%);stop-opacity:0.313725;"/>
<stop offset="0.222222" style="stop-color:rgb(0%,0%,0%);stop-opacity:0.27451;"/>
<stop offset="1" style="stop-color:rgb(0%,0%,0%);stop-opacity:0;"/>
</radialGradient>
<radialGradient id="radial1" gradientUnits="userSpaceOnUse" cx="450.90894" cy="189.57936" fx="450.90894" fy="189.57936" r="21.166656" gradientTransform="matrix(-0.000000261256,0.117199,0.210958,0.000000152308,-26.597295,-11.291218)">
<stop offset="0" style="stop-color:rgb(0%,0%,0%);stop-opacity:0.313725;"/>
<stop offset="0.222222" style="stop-color:rgb(0%,0%,0%);stop-opacity:0.27451;"/>
<stop offset="1" style="stop-color:rgb(0%,0%,0%);stop-opacity:0;"/>
</radialGradient>
<radialGradient id="radial2" gradientUnits="userSpaceOnUse" cx="450.90894" cy="189.57936" fx="450.90894" fy="189.57936" r="21.166656" gradientTransform="matrix(-0.000000261256,-0.117199,0.210958,-0.000000152308,-26.597296,95.393002)">
<stop offset="0" style="stop-color:rgb(0%,0%,0%);stop-opacity:0.313725;"/>
<stop offset="0.222222" style="stop-color:rgb(0%,0%,0%);stop-opacity:0.27451;"/>
<stop offset="1" style="stop-color:rgb(0%,0%,0%);stop-opacity:0;"/>
</radialGradient>
<radialGradient id="radial3" gradientUnits="userSpaceOnUse" cx="450.90894" cy="189.57936" fx="450.90894" fy="189.57936" r="21.166656" gradientTransform="matrix(0.000000261256,0.117199,-0.210958,0.000000152308,73.234565,-11.291219)">
<stop offset="0" style="stop-color:rgb(0%,0%,0%);stop-opacity:0.313725;"/>
<stop offset="0.222222" style="stop-color:rgb(0%,0%,0%);stop-opacity:0.27451;"/>
<stop offset="1" style="stop-color:rgb(0%,0%,0%);stop-opacity:0;"/>
</radialGradient>
<linearGradient id="linear1" gradientUnits="userSpaceOnUse" x1="940" y1="1695.1182" x2="940" y2="175.11812" gradientTransform="matrix(0.0248071,0,0,0.0248071,0,0)">
<stop offset="0" style="stop-color:rgb(100%,79.215686%,15.686275%);stop-opacity:1;"/>
<stop offset="1" style="stop-color:rgb(100%,83.529412%,30.980392%);stop-opacity:1;"/>
</linearGradient>
<linearGradient id="linear2" gradientUnits="userSpaceOnUse" x1="940" y1="1695.1182" x2="940" y2="175.11812" gradientTransform="matrix(0.0248071,0,0,0.0248071,0,0)">
<stop offset="0" style="stop-color:rgb(14.901961%,65.098039%,60.392157%);stop-opacity:1;"/>
<stop offset="1" style="stop-color:rgb(30.196078%,71.372549%,67.45098%);stop-opacity:1;"/>
</linearGradient>
<linearGradient id="linear3" gradientUnits="userSpaceOnUse" x1="1157.7817" y1="1072.8989" x2="614.72894" y2="504.99619" gradientTransform="matrix(0.0175412,0.0175412,-0.0175412,0.0175412,31.256365,2.92199)">
<stop offset="0" style="stop-color:rgb(14.901961%,65.098039%,60.392157%);stop-opacity:1;"/>
<stop offset="1" style="stop-color:rgb(30.196078%,71.372549%,67.45098%);stop-opacity:1;"/>
</linearGradient>
</defs>
<g id="surface1">
<path style=" stroke:none;fill-rule:nonzero;fill:url(#linear0);" d="M 12.898438 42.050781 L 33.738281 42.050781 L 33.738281 44.035156 L 12.898438 44.035156 Z M 12.898438 42.050781 "/>
<path style=" stroke:none;fill-rule:nonzero;fill:url(#radial0);" d="M 33.738281 42.050781 L 37.707031 42.050781 L 37.707031 40.066406 L 33.738281 40.066406 Z M 33.738281 42.050781 "/>
<path style=" stroke:none;fill-rule:nonzero;fill:url(#radial1);" d="M 12.898438 42.050781 L 8.929688 42.050781 L 8.929688 44.035156 L 12.898438 44.035156 Z M 12.898438 42.050781 "/>
<path style=" stroke:none;fill-rule:nonzero;fill:url(#radial2);" d="M 12.898438 42.050781 L 8.929688 42.050781 L 8.929688 40.066406 L 12.898438 40.066406 Z M 12.898438 42.050781 "/>
<path style=" stroke:none;fill-rule:nonzero;fill:url(#radial3);" d="M 33.738281 42.050781 L 37.707031 42.050781 L 37.707031 44.035156 L 33.738281 44.035156 Z M 33.738281 42.050781 "/>
<path style=" stroke:none;fill-rule:nonzero;fill:url(#linear1);" d="M 10.914062 4.34375 C 9.816406 4.34375 8.929688 5.230469 8.929688 6.328125 L 8.929688 40.066406 C 8.929688 41.164062 9.816406 42.050781 10.914062 42.050781 L 35.722656 42.050781 C 36.820312 42.050781 37.707031 41.164062 37.707031 40.066406 L 37.707031 13.273438 L 28.777344 4.34375 Z M 30.761719 4.34375 L 37.707031 11.289062 L 37.707031 6.328125 C 37.707031 5.230469 36.820312 4.34375 35.722656 4.34375 Z M 30.761719 4.34375 "/>
<path style=" stroke:none;fill-rule:nonzero;fill:url(#linear2);" d="M 30.761719 4.34375 L 37.707031 11.289062 L 37.707031 6.328125 C 37.707031 5.230469 36.820312 4.34375 35.722656 4.34375 Z M 30.761719 4.34375 "/>
<path style=" stroke:none;fill-rule:nonzero;fill:rgb(100%,100%,100%);fill-opacity:0.392157;" d="M 10.914062 4.34375 C 9.816406 4.34375 8.929688 5.230469 8.929688 6.328125 L 8.929688 6.824219 C 8.929688 5.726562 9.816406 4.839844 10.914062 4.839844 L 28.777344 4.839844 L 37.707031 13.769531 L 37.707031 13.273438 L 28.777344 4.34375 Z M 30.761719 4.34375 L 31.257812 4.839844 L 35.722656 4.839844 C 36.820312 4.839844 37.707031 5.726562 37.707031 6.824219 L 37.707031 6.328125 C 37.707031 5.230469 36.820312 4.34375 35.722656 4.34375 Z M 30.761719 4.34375 "/>
<path style=" stroke:none;fill-rule:nonzero;fill:rgb(0%,0%,0%);fill-opacity:0.235294;" d="M 30.761719 4.34375 L 37.707031 11.289062 L 37.707031 10.554688 L 31.496094 4.34375 Z M 8.929688 39.328125 L 8.929688 40.066406 C 8.929688 41.164062 9.816406 42.050781 10.914062 42.050781 L 35.722656 42.050781 C 36.820312 42.050781 37.707031 41.164062 37.707031 40.066406 L 37.707031 39.328125 C 37.707031 40.429688 36.820312 41.316406 35.722656 41.316406 L 10.914062 41.316406 C 9.816406 41.316406 8.929688 40.429688 8.929688 39.328125 Z M 8.929688 39.328125 "/>
<path style=" stroke:none;fill-rule:nonzero;fill:rgb(12.941176%,12.941176%,12.941176%);fill-opacity:1;" d="M 10.914062 4.203125 C 9.738281 4.203125 8.789062 5.152344 8.789062 6.328125 L 8.789062 40.066406 C 8.789062 41.242188 9.738281 42.191406 10.914062 42.191406 L 35.722656 42.191406 C 36.898438 42.191406 37.847656 41.242188 37.847656 40.066406 L 37.847656 13.273438 C 37.847656 13.238281 37.832031 13.203125 37.804688 13.175781 L 28.875 4.246094 C 28.847656 4.21875 28.8125 4.203125 28.777344 4.203125 Z M 30.761719 4.203125 C 30.703125 4.203125 30.652344 4.238281 30.628906 4.289062 C 30.609375 4.34375 30.621094 4.402344 30.660156 4.445312 L 37.605469 11.390625 C 37.648438 11.429688 37.707031 11.441406 37.761719 11.421875 C 37.8125 11.398438 37.847656 11.347656 37.847656 11.289062 L 37.847656 6.328125 C 37.847656 5.152344 36.898438 4.203125 35.722656 4.203125 Z M 10.914062 4.484375 L 28.71875 4.484375 L 37.566406 13.332031 L 37.566406 40.066406 C 37.566406 41.089844 36.746094 41.910156 35.722656 41.910156 L 10.914062 41.910156 C 9.890625 41.910156 9.070312 41.089844 9.070312 40.066406 L 9.070312 6.328125 C 9.070312 5.304688 9.890625 4.484375 10.914062 4.484375 Z M 31.101562 4.484375 L 35.722656 4.484375 C 36.746094 4.484375 37.566406 5.304688 37.566406 6.328125 L 37.566406 10.949219 Z M 31.101562 4.484375 "/>
<path style=" stroke:none;fill-rule:nonzero;fill:url(#linear3);" d="M 37.304688 25.757812 C 36.796875 25.757812 36.292969 25.953125 35.902344 26.339844 L 28.886719 33.359375 L 27.832031 34.410156 L 32.746094 39.320312 L 40.8125 31.253906 C 41.589844 30.476562 41.589844 29.222656 40.8125 28.445312 L 38.710938 26.339844 C 38.320312 25.953125 37.8125 25.757812 37.304688 25.757812 Z M 26.78125 35.464844 C 26.667969 35.578125 26.578125 35.71875 26.53125 35.890625 L 25.125 40.804688 C 24.914062 41.550781 25.605469 42.242188 26.351562 42.03125 L 31.261719 40.625 C 31.433594 40.578125 31.578125 40.488281 31.691406 40.375 Z M 26.78125 35.464844 "/>
<path style=" stroke:none;fill-rule:nonzero;fill:rgb(84.313725%,84.313725%,84.313725%);fill-opacity:0.588235;" d="M 37.304688 25.757812 C 36.796875 25.757812 36.292969 25.953125 35.902344 26.339844 L 28.886719 33.359375 L 27.832031 34.410156 L 28.246094 34.824219 L 35.902344 27.167969 C 36.679688 26.390625 37.933594 26.390625 38.710938 27.167969 L 40.8125 29.273438 C 41.097656 29.554688 41.277344 29.898438 41.351562 30.261719 C 41.488281 29.628906 41.308594 28.941406 40.8125 28.445312 L 38.710938 26.339844 C 38.320312 25.953125 37.8125 25.757812 37.304688 25.757812 Z M 37.304688 25.757812 "/>
<path style=" stroke:none;fill-rule:evenodd;fill:rgb(84.313725%,84.313725%,84.313725%);fill-opacity:0.588235;" d="M 37.304688 25.757812 C 36.796875 25.757812 36.292969 25.953125 35.902344 26.339844 L 28.886719 33.359375 L 27.832031 34.410156 L 28.105469 34.679688 L 35.902344 26.882812 C 35.925781 26.855469 35.953125 26.832031 35.976562 26.8125 C 36.003906 26.789062 36.027344 26.765625 36.054688 26.746094 C 36.09375 26.714844 36.132812 26.683594 36.171875 26.652344 C 36.214844 26.625 36.257812 26.597656 36.296875 26.574219 C 36.355469 26.539062 36.414062 26.511719 36.472656 26.484375 C 36.675781 26.386719 36.894531 26.328125 37.117188 26.308594 C 37.179688 26.300781 37.242188 26.296875 37.304688 26.296875 C 37.371094 26.296875 37.433594 26.300781 37.496094 26.308594 C 37.71875 26.328125 37.933594 26.386719 38.140625 26.484375 C 38.199219 26.511719 38.257812 26.539062 38.3125 26.574219 C 38.355469 26.597656 38.398438 26.625 38.4375 26.652344 C 38.480469 26.683594 38.519531 26.714844 38.558594 26.746094 C 38.585938 26.765625 38.609375 26.789062 38.636719 26.8125 C 38.660156 26.832031 38.683594 26.855469 38.710938 26.882812 L 40.8125 28.988281 C 40.832031 29.003906 40.851562 29.023438 40.867188 29.042969 C 40.871094 29.046875 40.878906 29.054688 40.882812 29.058594 C 40.894531 29.074219 40.90625 29.085938 40.917969 29.097656 C 40.921875 29.105469 40.929688 29.113281 40.933594 29.117188 C 40.949219 29.132812 40.960938 29.148438 40.972656 29.164062 C 40.976562 29.167969 40.980469 29.171875 40.980469 29.175781 C 40.996094 29.195312 41.011719 29.214844 41.027344 29.238281 C 41.03125 29.242188 41.03125 29.246094 41.035156 29.25 C 41.046875 29.265625 41.058594 29.28125 41.070312 29.300781 C 41.074219 29.304688 41.078125 29.308594 41.082031 29.316406 C 41.089844 29.332031 41.101562 29.351562 41.113281 29.367188 C 41.117188 29.371094 41.117188 29.375 41.121094 29.378906 C 41.132812 29.402344 41.144531 29.421875 41.15625 29.445312 C 41.167969 29.46875 41.179688 29.488281 41.191406 29.511719 C 41.195312 29.515625 41.195312 29.523438 41.199219 29.527344 C 41.207031 29.542969 41.214844 29.5625 41.222656 29.582031 C 41.226562 29.585938 41.230469 29.589844 41.230469 29.597656 C 41.242188 29.617188 41.25 29.640625 41.257812 29.664062 C 41.269531 29.6875 41.277344 29.710938 41.285156 29.738281 C 41.296875 29.761719 41.304688 29.785156 41.308594 29.808594 C 41.3125 29.8125 41.3125 29.8125 41.3125 29.816406 C 41.320312 29.839844 41.328125 29.863281 41.332031 29.886719 C 41.347656 29.9375 41.355469 29.988281 41.367188 30.039062 C 41.367188 30.042969 41.367188 30.042969 41.367188 30.042969 C 41.371094 30.066406 41.375 30.09375 41.378906 30.117188 C 41.378906 30.117188 41.378906 30.117188 41.378906 30.121094 C 41.460938 29.527344 41.273438 28.90625 40.8125 28.445312 L 38.710938 26.339844 C 38.320312 25.953125 37.8125 25.757812 37.304688 25.757812 Z M 26.78125 35.464844 C 26.667969 35.578125 26.578125 35.71875 26.53125 35.890625 L 25.125 40.804688 C 25.070312 40.992188 25.078125 41.179688 25.125 41.347656 C 25.125 41.347656 25.125 41.34375 25.125 41.34375 L 26.53125 36.433594 C 26.578125 36.261719 26.667969 36.117188 26.78125 36.003906 L 31.367188 40.589844 C 31.496094 40.539062 31.601562 40.464844 31.691406 40.375 Z M 26.78125 35.464844 "/>
<path style=" stroke:none;fill-rule:nonzero;fill:rgb(0%,0%,0%);fill-opacity:0.235294;" d="M 41.382812 29.601562 C 41.328125 30.023438 41.140625 30.433594 40.8125 30.757812 L 32.746094 38.824219 L 28.082031 34.164062 L 27.832031 34.410156 L 32.746094 39.320312 L 40.8125 31.253906 C 41.265625 30.800781 41.457031 30.1875 41.382812 29.601562 Z M 31.398438 40.082031 C 31.355469 40.101562 31.3125 40.117188 31.261719 40.128906 L 26.351562 41.535156 C 25.785156 41.695312 25.253906 41.339844 25.117188 40.832031 C 24.929688 41.566406 25.613281 42.242188 26.351562 42.03125 L 31.261719 40.625 C 31.433594 40.578125 31.578125 40.488281 31.691406 40.375 Z M 31.398438 40.082031 "/>
<path style="fill:none;stroke-width:3;stroke-linecap:round;stroke-linejoin:round;stroke:rgb(12.941176%,12.941176%,12.941176%);stroke-opacity:1;stroke-miterlimit:4;" d="M 412.877239 65.931506 C 404.586364 57.640631 391.212641 57.640631 382.921766 65.931506 L 308.095578 140.799356 L 296.846653 152.006619 L 349.258314 204.376618 L 435.291765 118.343167 C 443.58264 110.052292 443.58264 96.67857 435.291765 88.387695 Z M 412.877239 65.931506 " transform="matrix(0.093759,0,0,0.093759,0,20.158175)"/>
<path style="fill:none;stroke-width:3;stroke-linecap:round;stroke-linejoin:round;stroke:rgb(12.941176%,12.941176%,12.941176%);stroke-opacity:1;stroke-miterlimit:4;" d="M 285.639389 163.255545 C 284.431172 164.463763 283.47293 165.96362 282.972977 167.796778 L 267.97441 220.20844 C 265.724625 228.166013 273.09892 235.540309 281.056494 233.290524 L 333.426493 218.291956 C 335.259651 217.792004 336.80117 216.833762 338.009388 215.625544 Z M 285.639389 163.255545 " transform="matrix(0.093759,0,0,0.093759,0,20.158175)"/>
</g>
</svg>
